X:1
T:D.801, Op. 60
T:Dithyrambe
T:2. Dithyrambe
T:Franz Schubert
T:D.801, Op.60
T:Friedrich Schiller
T:OpenScore (CC0)
T:OpenScore (CC0)
C:Franz Schubert
Z:Friedrich Schiller
Z:OpenScore (CC0)
%%score 1 { ( 2 4 ) | ( 3 5 ) }
L:1/8
Q:1/4=120
M:6/8
K:A
V:1 bass nm="Singstimme"
V:2 treble nm="Pianoforte"
V:4 treble 
V:3 bass 
V:5 bass 
V:1
"^Geschwind und feurig." z6 |:[Q:1/4=120]"^T" z6 | z6 | z6 | z6 |!mf! A,3/2 G,/ A, E, C, E, | %6
w: |||||Nim- mer, das glaubt mir, er-|
w: |||||Sagt, wie be- wirth' ich, der|
w: |||||Reich' ihm die Scha- le! o|
 E,3/2 G,/ B, B,2 A, | C3/2 B,/ C (D2 D,) | ^D,3/2 C,/ D, E,2 z | E, E, E, ^E,3/2 F,/ F, | %10
w: schei- nen die Göt- ter,|nim- mer al- lein, _|nim- mer al- lein.|Kaum dass ich Ba- chus, den|
w: Er- de- ge- bor- ne,|himm- li- schen Chor, _|himm- li- schen Chor?|Schen- ket mir eu- er un-|
w: schen- ke dem Dich- ter,|He- be, nur ein, _|schen- ke nur ein!|Netz' ihm die Au- gen mit|
 A,3/2 G,/ F, F,2 =E, | E, C C C ^B, B, | =B,3/2 C/ B, B,2 A, | A, A, A, D3/2 D,/ E, | %14
w: Lu- sti- gen, ha- be,|kommt auch schon A- mor, der|lä- cheln- de Kna- be,|Phö- bus, der Herr- li- che,|
w: sterb- li- ches Le- ben,|Göt- ter! was kann euch der|Sterb- li- che ge- ben?|He- bet zu eu- rem O-|
w: himm- li- schem Thau- e,|dass er den Styx, den ver-|hass- ten, nicht schau- e,|ei- ner der Un- sern sich|
 F, =G, E, A,3 | B, B, B, D3/2 D,/ E, | F, =G, E, D,2 z |[Q:1/4=105]"^T" z2 z z2!mf! F, | %18
w: fin- det sich ein,|Phö- bus, der Herr- li- che,|fin- det sich ein.|Sie|
w: lymp mich em- por,|he- bet zu eu- rem O-|lymp mich em- por!|Die|
w: dün- ke zu sein,|ei- ner der Un- sern sich|dün- ke zu sein.|Sie|
{F,^G,} !>!F, E, E, !>!^A, B, E, |{F,G,} !>!F, E, E, !>!^A, B, B, | C3/2 D/ C C C, C, | %21
w: na- hen, sie kom- men, die|Himm- li- schen al- le, mit|Göt- tern er- füllt sich die|
w: Freu- de, sie wohnt nur in|Ju- pi- ters Saa- le; o|fül- let mit Nek- tar, o|
w: rau- schet, sie per- let, die|himm- li- sche Quel- le, der|Bu- sen wird ru- hig, das|
 D,3/2 E,/ D, D, =G, B, | B, E, E, E, C, A, | B, E, E, E, C, C |!ff! C ^A, F,{E,} D, C, B,, | %25
w: ir- di- sche Hal- le, sie|na- hen, sie kom- men, die|Himm- li- schen al- le, mit|Göt- tern er- füllt sich die|
w: reicht mir die Scha- le, die|Freu- de, sie wohnt nur in|Ju- pi- ters Saa- le, o|fül- let mit Nek- tar, o|
w: Au- ge wird hel- le, sie|rau- schet, sie per- let, die|himm- li- sche Quel- le, der|Bu- sen wird ru- hig, das|
 =A,,3/2 B,,/ A,, E,3 | C,2[Q:1/4=110]"^T" C C ^A, F, |{E,} D, C, B,, =A,,3/2 B,,/ A,, | E,6 |1,2 %29
w: ir- di- sche Hal-|le, mit Göt- tern er-|füllt sich die ir- di- sche|Hal-|
w: reicht mir die Scha-|le, o fül- let mit|Nek- tar, o reicht mir die|Scha-|
w: Au- ge wird hel-|le, der Bu- sen wird|ru- hig, das Au- ge wird|hel-|
 A,,2 z z2 z :|3 A,,2 z z2 z || z6 | z6 | z6 |] %34
w: le.|||||
w: le.|||||
w: |le.||||
V:2
 z/ A,/[CE]/A,/[CEA]/A,/ [CGc]>[CGc][CGc] |: z/ A,/[CF]/A,/[CFA]/A,/ [C^EGc]>[CEGc][CEGc] | %2
 z/ A,/[DF]/A,/[DFA]/A,/ [E=Gc]>[EGc][EGc] | %3
{e} d!wedge![EFc]!wedge![DFB] !wedge![CF^A]!wedge![DFB]!wedge![=CF=A] | [B,E]6 | %5
[K:bass] z/ E,/[A,C]/E,/[A,C]/E,/ z/ E,/[A,C]/E,/[A,C]/E,/ | %6
 z/ E,/[G,D]/E,/[G,D]/E,/ z/ E,/[A,C]/E,/[A,C]/E,/ | %7
 z/!>(! E,/[=G,A,C]/!>)!!pp!E,/[G,A,C]/E,/ z/ F,/[A,D]/F,/[A,D]/F,/ | %8
 z/!>(! F,/[A,B,^D]/!>)!!pp!F,/[A,B,D]/F,/ z/ ^G,/[B,E]/G,/[B,E]/G,/ | %9
[K:treble] z/ E/G,/E/G,/E/ z/ F/=D/F/D/F/ | z/ F/D/F/D/F/ z/ E/C/E/C/E/ | %11
 z/ E/C/E/C/E/ z/ ^D/^B,/D/B,/D/ | z/ G/[=B,=D]/G/[B,D]/G/ z/ A/[A,C]/A/[A,C]/A/ | %13
[K:bass] z/ F,/[A,D]/F,/[A,D]/F,/ z/ F,/[A,D]/F,/[A,D]/F,/ | %14
 z/ =G,/[A,C]/G,/[A,C]/G,/ z/ F,/[A,D]/F,/[A,D]/F,/ | %15
 z/ =G,/[B,D]/G,/[B,D]/G,/ z/ F,/[A,D]/F,/[A,D]/F,/ | %16
 z/ =G,/[A,C]/G,/[A,C]/G,/ z/ F,/[A,D]/F,/[A,D]/F,/ |[K:treble] (F=G)E D3 | %18
[K:bass] z/ E,/[^G,D]/E,/[G,D]/E,/ z/ E,/[G,D]/E,/[G,D]/E,/ | %19
 z/ E,/[G,D]/E,/[G,D]/E,/ z/ E,/[G,D]/E,/[G,D]/E,/ | %20
 z/!p! C,/[G,B,C]/C,/[G,B,C]/C,/ z/ C,/[F,A,C]/C,/[F,A,C]/C,/ | %21
 z/!p!!>(! D,/[A,=CD]/D,/[A,CD]/!pp!D,/!>)!!p! z/ D,/[=G,B,D]/D,/[G,B,D]/D,/ | %22
[K:treble] z/!>(! D/[EB]/D/[EB]/!pp!D/!>)!!p! z/ C/[EA]/C/[EA]/C/ | %23
!>(! z/ D/[EB]/D/[EB]/!pp!D/!>)!!p! z/ C/[EA]/C/[EA]/C/ | z/ E/[Fc]/E/[Fc]/E/ z/ D/[FB]/D/[FB]/D/ | %25
 z/ =C/[FA]/C/[FA]/C/ z/ B,/[EA]/B,/[EG]/B,/ | z/ ^C/[EA]/C/[EA]/C/ z/ E/[Fc]/E/[Fc]/E/ | %27
 z/ D/[FB]/D/[FB]/D/ z/ =C/[FA]/C/[FA]/C/ | z/ B,/[EA]/B,/[EA]/B,/ z/ B,/[EG]/B,/[EG]/B,/ |1,2 %29
 z/ A,/[CE]/A,/[CEA]/A,/ [CGc]>[CGc][CGc] :|3 z/ A,/[CE]/A,/[CEA]/A,/ [CEAc]>[CEAc][CEAc] || %31
 z/ C/[EA]/C/[EAc]/C/ [EAce]>[EAce][EAce] | [Acea]2 z [ceac']2 z |[K:bass] [C,E,A,]2 z z2 z |] %34
V:3
!ff! !>![A,,,A,,]2 [A,,E,] [^E,,C,^E,]>[E,,C,E,][E,,C,E,] |: %1
 !>![F,,,F,,]2 [F,,F,] [C,,C,]>[C,,C,][C,,C,] | !>![D,,D,]2 [D,F,] [^A,,,^A,,]>[A,,,A,,][A,,,A,,] | %3
!f! !wedge![B,,,B,,]!wedge![C,,C,]!wedge![D,,D,] !wedge![E,,E,]!wedge![D,,D,]!wedge![^D,,^D,] | %4
 [E,,E,]6 |!p! [A,,,A,,]2 z [A,,,A,,]2 z | [A,,,A,,]2 z [A,,,A,,]2 z | %7
 [A,,,A,,]2!p! z [D,,A,,]2 z | [B,,,B,,]2!p! z [E,,B,,]2 z | [E,,E,]2 z [E,,E,]2 z | %10
 [E,,E,]2 z [E,,E,]2 z |"^cresc." [E,,E,]2 z [E,,E,]2 z | [E,,E,]2 z [F,,F,]2 z | %13
!f! [D,,A,,D,]3 [D,,A,,D,]3 | [D,,A,,E,]3 [D,,A,,D,]3 | (=G,,2 B,,) [D,,D,]3 | %16
 [D,,A,,]3 [D,,A,,D,]3 | !>![A,,E,]2 [A,,=G,] [D,F,]3 |!p! .B,, z z .E,, z z | .B,, z z .E,, z z | %20
 (^E,,3 F,,) z2 | (F,,3 =G,,) z2 | ^G,, z z A,, z z | G,, z z A,, z z | %24
!f! [^A,,,^A,,]3 [B,,,B,,]2 [D,,D,] | [^D,,^D,]3 [E,,E,]3 | [A,,,A,,]3 [^A,,,^A,,]3 | %27
 [B,,,B,,]2 [D,,D,] [^D,,^D,]3 |"^cresc." [E,,E,]3 [E,,E,]3 |1,2 %29
!ff! [A,,,A,,]2 [A,,E,] [^E,,C,^E,]>[E,,C,E,][E,,C,E,] :|3 %30
!ff! [A,,,A,,]2 [A,,E,] [A,,E,A,]>!mf![A,,E,A,][A,,E,A,] || %31
 [A,,,A,,]2 [A,,E,] [A,,E,A,]>!mf![A,,E,A,][A,,E,A,] | [A,,E,A,]2 z [A,,E,A,]2 z | %33
 [A,,,A,,]2 z z2 z |] %34
V:4
 x6 |: x6 | x6 | x6 | (A,3 G,3) |[K:bass] x6 | x6 | x6 | x6 |[K:treble] x6 | x6 | x6 | x6 | %13
[K:bass] x6 | x6 | x6 | x6 |[K:treble] [A,C]2 [A,C] A,3 |[K:bass] x6 | x6 | x6 | x6 | %22
[K:treble] x6 | x6 | x6 | x6 | x6 | x6 | x6 |1,2 x6 :|3 x6 || x6 | x6 |[K:bass] x6 |] %34
V:5
 x6 |: x6 | x6 | x6 | x6 | x6 | x6 | x6 | x6 | x6 | x6 | x6 | x6 | x6 | x6 | [D,,D,]3 x3 | x6 | %17
 x6 | x6 | x6 | x6 | x6 | x6 | x6 | x6 | x6 | x6 | x6 | x6 |1,2 x6 :|3 x6 || x6 | x6 | x6 |] %34

